components/icon/svg/24/communication_fax.svg

<?xml version="1.0" encoding="UTF-8"?>
<svg width="24px" height="24px" viewBox="0 0 24 24" version="1.1" xmlns="http://www.w3.org/2000/svg" xmlns:xlink="http://www.w3.org/1999/xlink">
    <!-- Generator: Sketch 64 (93537) - https://sketch.com -->
    <title>ic-db_communication_fax_24</title>
    <desc>Created with Sketch.</desc>
    <g id="Symbols:Icon" stroke="none" stroke-width="1" fill="none" fill-rule="evenodd">
        <g id="24dp-Icon/Communication/Fax" fill="#282D37">
            <path d="M14.9343,2 C15.216,2 15.4742,2.1173 15.662,2.3051 L19.6761,6.2723 C19.8873,6.4835 19.9812,6.7418 19.9812,7 L19.9812,15.0516 C21.3897,16.0141 22,17.1173 22,18.8075 C22,20.6619 20.9671,21.953 19.3005,21.953 L16.7653,21.953 C15.3099,21.953 14.1127,20.7558 14.1127,19.277 C13.4085,19.1596 12.8685,19.1127 12,19.1127 C11.2488,19.1127 10.4272,19.1831 9.8873,19.277 C9.8873,20.7558 8.6901,21.953 7.2347,21.953 L4.6995,21.953 C3.1033,21.953 2,20.7324 2,18.8075 C2,17.1173 2.6103,15.9906 4.0423,15.0281 L4.0423,3.9483 C4.0423,2.8685 4.9108,2 5.9671,2 L14.9343,2 Z M12.0235,15.122 C8.0329,15.122 4.0188,16.2488 4.0188,18.8075 C4.0188,19.4178 4.1127,19.9577 4.6995,19.9577 L7.2347,19.9577 C7.5869,19.9577 7.8685,19.6526 7.8685,19.277 L7.8685,18.4554 C7.8685,17.4929 9.0892,17.1173 12,17.1173 C14.5587,17.1173 16.1315,17.4695 16.1315,18.4554 L16.1315,19.277 C16.1315,19.6526 16.4131,19.9577 16.7653,19.9577 L19.3005,19.9577 C19.8404,19.9577 19.9812,19.5117 19.9812,18.8075 C19.9812,16.1549 16.554,15.122 12.0235,15.122 Z M6,3.9953 L6,14.0892 C7.5258,13.4319 9.4037,13.1267 11.9624,13.1267 C14.615,13.1267 16.615,13.4835 18,14.0939 L18,9 L14.0094,9 C13.493,9 13,8.5868 13,8 L13,4 L6,3.9953 Z M15.0047,4.4648 L15.0047,7 L17.5869,7 L15.0047,4.4648 Z" id="🎨-Color"></path>
        </g>
    </g>
</svg>

<svg width="24" height="24" xmlns="http://www.w3.org/2000/svg"><path d="M14.934 2c.282 0 .54.117.728.305l4.014 3.967c.211.212.305.47.305.728v8.052C21.39 16.014 22 17.117 22 18.808c0 1.854-1.033 3.145-2.7 3.145h-2.535c-1.455 0-2.652-1.197-2.652-2.676A11.523 11.523 0 0012 19.113c-.751 0-1.573.07-2.113.164 0 1.479-1.197 2.676-2.652 2.676H4.699C3.103 21.953 2 20.733 2 18.808c0-1.69.61-2.817 2.042-3.78V3.948C4.042 2.868 4.911 2 5.967 2h8.967zm-2.91 13.122c-3.991 0-8.005 1.127-8.005 3.686 0 .61.094 1.15.68 1.15h2.536c.352 0 .633-.305.633-.681v-.822c0-.962 1.221-1.338 4.132-1.338 2.559 0 4.131.352 4.131 1.338v.822c0 .376.282.68.634.68H19.3c.54 0 .681-.445.681-1.15 0-2.652-3.427-3.685-7.958-3.685zM6 3.995V14.09c1.526-.657 3.404-.962 5.962-.962 2.653 0 4.653.356 6.038.967V9h-3.99C13.492 9 13 8.587 13 8V4l-7-.005zm9.005.47V7h2.582l-2.582-2.535z" fill="#282D37" fill-rule="evenodd"/></svg>
